ui_kit/lib/assets/icons/local_capture.svg

<svg width="20" height="18" viewBox="0 0 20 18" fill="none" xmlns="http://www.w3.org/2000/svg">
<path fill-rule="evenodd" clip-rule="evenodd" d="M7.62058 4.68758C8.25166 4.0565 9.10759 3.70197 10.0001 3.70197C10.8925 3.70197 11.7485 4.0565 12.3796 4.68758C13.0106 5.31866 13.3652 6.17459 13.3652 7.06707C13.3652 7.95955 13.0106 8.81547 12.3796 9.44655C11.7485 10.0776 10.8925 10.4322 10.0001 10.4322C9.10759 10.4322 8.25166 10.0776 7.62058 9.44655C6.9895 8.81547 6.63496 7.95955 6.63496 7.06707C6.63496 6.17459 6.9895 5.31866 7.62058 4.68758ZM10.0001 5.20197C9.50541 5.20197 9.03101 5.39847 8.68124 5.74824C8.33147 6.09802 8.13496 6.57241 8.13496 7.06707C8.13496 7.56172 8.33147 8.03612 8.68124 8.38589C9.03101 8.73567 9.50541 8.93217 10.0001 8.93217C10.4947 8.93217 10.9691 8.73567 11.3189 8.38589C11.6687 8.03612 11.8652 7.56172 11.8652 7.06707C11.8652 6.57241 11.6687 6.09802 11.3189 5.74824C10.9691 5.39847 10.4947 5.20197 10.0001 5.20197Z" fill="white"/>
<path fill-rule="evenodd" clip-rule="evenodd" d="M10.0001 12.8346C8.88837 12.8346 7.82221 13.2763 7.03612 14.0623C6.39461 14.7039 5.98248 15.5319 5.85261 16.4191L4.36843 16.2018C4.54477 14.9972 5.10433 13.8728 5.97546 13.0017C7.04285 11.9343 8.49054 11.3346 10.0001 11.3346C11.5096 11.3346 12.9573 11.9343 14.0247 13.0017C14.8958 13.8728 15.4554 14.9972 15.6317 16.2018L14.1475 16.4191C14.0176 15.5319 13.6055 14.7039 12.964 14.0623C12.1779 13.2763 11.1118 12.8346 10.0001 12.8346Z" fill="white"/>
<path fill-rule="evenodd" clip-rule="evenodd" d="M17.9076 2.42523H2.09253C1.81639 2.42523 1.59253 2.64909 1.59253 2.92523V15.0748C1.59253 15.3509 1.81639 15.5748 2.09253 15.5748H17.9076C18.1837 15.5748 18.4076 15.3509 18.4076 15.0748V2.92523C18.4076 2.64909 18.1837 2.42523 17.9076 2.42523ZM2.09253 0.925232C0.98796 0.925232 0.0925293 1.82066 0.0925293 2.92523V15.0748C0.0925293 16.1793 0.98796 17.0748 2.09253 17.0748H17.9076C19.0122 17.0748 19.9076 16.1793 19.9076 15.0748V2.92523C19.9076 1.82066 19.0122 0.925232 17.9076 0.925232H2.09253Z" fill="white"/>
</svg>

<svg xmlns="http://www.w3.org/2000/svg" width="20" height="18" fill="none" viewBox="0 0 20 18"><path fill="#fff" fill-rule="evenodd" d="M7.62 4.688a3.365 3.365 0 1 1 4.76 4.759 3.365 3.365 0 0 1-4.76-4.76Zm2.38.514a1.865 1.865 0 1 0 0 3.73 1.865 1.865 0 0 0 0-3.73Zm0 7.633a4.192 4.192 0 0 0-4.147 3.584l-1.485-.217a5.692 5.692 0 0 1 11.264 0l-1.484.217A4.192 4.192 0 0 0 10 12.835Z" clip-rule="evenodd"/><path fill="#fff" fill-rule="evenodd" d="M17.908 2.425H2.093a.5.5 0 0 0-.5.5v12.15a.5.5 0 0 0 .5.5h15.815a.5.5 0 0 0 .5-.5V2.925a.5.5 0 0 0-.5-.5ZM2.093.925a2 2 0 0 0-2 2v12.15a2 2 0 0 0 2 2h15.815a2 2 0 0 0 2-2V2.925a2 2 0 0 0-2-2H2.093Z" clip-rule="evenodd"/></svg>
